X: 1
T:Willie Hoffleman's Unbelievable Reel
M:4/4
L:1/8
C:Stephen P McNally
S:© 1995
R:Reel
N:For Willie Hoffleman
H:
K:D
BEFG dEeE|GBdG AceA|BE (3EEE dEeE|gbag fdcA|
BEFG dEeE|GBdB Aggf|BE (3EEE dEeE|gbag f4||
Befg fdec|Befg fga2|Befg fdec|BGAF GEFG|
Befg fdec|Befg fga2|b2ge fdc2|B2 (3BBB BAGA||
